X:26
T: Sárga szeme van a kukoricának
O: Bodmér (Fejér), Özv. Paksz Lajosné - Lengyel Ilona (61), 1952.07
M:4/4
L:1/4
Q: "Tempo guisto" 1/4=96
K:Bb
F/B/A/G/ F/G/F/E/ | D<B,B, z | 
d/d/c/B/ G/A/B/A/ | G<F F z | 
d/d/c/B/ G/A/B/A/ | G<F C z | 
F/B/A/G/ F/G/F/E/ | D<B,B, z | 

